svgs/light/file-circle-info.svg

<svg xmlns="http://www.w3.org/2000/svg" viewBox="0 0 576 512"><!--! Font Awesome Pro 6.4.0 by @fontawesome - https://fontawesome.com License - https://fontawesome.com/license (Commercial License) Copyright 2023 Fonticons, Inc. --><path d="M64 480H296.2c9.8 11.8 21 22.3 33.5 31.3c-3.2 .5-6.4 .7-9.7 .7H64c-35.3 0-64-28.7-64-64V64C0 28.7 28.7 0 64 0H220.1c12.7 0 24.9 5.1 33.9 14.1L369.9 129.9c9 9 14.1 21.2 14.1 33.9v34.7c-11.2 3.2-21.9 7.4-32 12.6V192H240c-26.5 0-48-21.5-48-48V32H64C46.3 32 32 46.3 32 64V448c0 17.7 14.3 32 32 32zM351.5 160c-.7-2.8-2.1-5.4-4.2-7.4L231.4 36.7c-2.1-2.1-4.6-3.5-7.4-4.2V144c0 8.8 7.2 16 16 16H351.5zM544 368a112 112 0 1 0 -224 0 112 112 0 1 0 224 0zm-256 0a144 144 0 1 1 288 0 144 144 0 1 1 -288 0zm144-32a24 24 0 1 1 0-48 24 24 0 1 1 0 48zm-32 96c0-8.8 7.2-16 16-16V384c-8.8 0-16-7.2-16-16s7.2-16 16-16h16c8.8 0 16 7.2 16 16v48h0c8.8 0 16 7.2 16 16s-7.2 16-16 16H432 416c-8.8 0-16-7.2-16-16z"/></svg>

<svg xmlns="http://www.w3.org/2000/svg" viewBox="0 0 576 512"><!--! Font Awesome Pro 6.3.0 by @fontawesome - https://fontawesome.com License - https://fontawesome.com/license (Commercial License) Copyright 2023 Fonticons, Inc. --><path d="M64 480H296.2C305.1 491.8 317.3 502.3 329.7 511.3C326.6 511.7 323.3 512 320 512H64C28.65 512 0 483.3 0 448V64C0 28.65 28.65 0 64 0H220.1C232.8 0 245.1 5.057 254.1 14.06L369.9 129.9C378.9 138.9 384 151.2 384 163.9V198.6C372.8 201.8 362.1 206 352 211.2V192H240C213.5 192 192 170.5 192 144V32H64C46.33 32 32 46.33 32 64V448C32 465.7 46.33 480 64 480V480zM347.3 152.6L231.4 36.69C229.4 34.62 226.8 33.18 224 32.48V144C224 152.8 231.2 160 240 160H351.5C350.8 157.2 349.4 154.6 347.3 152.6zM432 288C445.3 288 456 298.7 456 312C456 325.3 445.3 336 432 336C418.7 336 408 325.3 408 312C408 298.7 418.7 288 432 288zM415.1 416V384C407.2 383.1 400 376.8 400 368C400 359.2 407.2 352 416 352H431.1C440.8 352 447.1 359.2 447.1 368L448 416C456.8 416 464 423.2 464 432C464 440.8 456.8 448 448 448H416C407.2 448 400 440.8 400 432C400 423.2 407.2 416 415.1 416zM432 512C352.5 512 288 447.5 288 368C288 288.5 352.5 224 432 224C511.5 224 576 288.5 576 368C576 447.5 511.5 512 432 512zM544 368C544 306.1 493.9 256 432 256C370.1 256 320 306.1 320 368C320 429.9 370.1 480 432 480C493.9 480 544 429.9 544 368z"/></svg>
